public/assets/share.svg

<svg xmlns="http://www.w3.org/2000/svg" width="24" height="24" viewBox="0 0 24 24" fill="none">
  <path fill-rule="evenodd" clip-rule="evenodd" d="M17.2455 5.16488C16.4098 5.31354 15.2831 5.68758 13.7019 6.21465L10.1224 7.40781C8.85099 7.83163 7.93007 8.13906 7.27962 8.41571C6.59957 8.70495 6.35765 8.90656 6.27908 9.04171C6.03708 9.45799 6.03708 9.97211 6.27908 10.3884C6.35765 10.5235 6.59957 10.7251 7.27961 11.0144C7.93007 11.291 8.85099 11.5985 10.1224 12.0223C10.1425 12.029 10.1623 12.0356 10.1819 12.0421C10.5292 12.1576 10.7992 12.2474 11.0314 12.4029C11.2551 12.5527 11.4473 12.7449 11.5971 12.9686C11.7526 13.2008 11.8424 13.4708 11.9579 13.8181C11.9644 13.8377 11.971 13.8575 11.9777 13.8776C12.4015 15.149 12.709 16.0699 12.9856 16.7204C13.2749 17.4004 13.4765 17.6423 13.6116 17.7209C14.0279 17.9629 14.542 17.9629 14.9583 17.7209C15.0934 17.6423 15.295 17.4004 15.5843 16.7204C15.8609 16.0699 16.1684 15.149 16.5922 13.8776L17.7853 10.2981C18.3124 8.71688 18.6865 7.59019 18.8351 6.75449C18.9845 5.91482 18.8703 5.55814 18.6561 5.3439C18.4419 5.12966 18.0852 5.01551 17.2455 5.16488ZM17.0533 4.08426C17.9834 3.9188 18.8211 3.95672 19.4322 4.56779C20.0433 5.17886 20.0812 6.01659 19.9157 6.94673C19.7513 7.87125 19.3502 9.07439 18.8424 10.5976L17.6246 14.251C17.2115 15.4906 16.8904 16.4538 16.5943 17.15C16.3087 17.8215 15.9916 18.3898 15.5099 18.6698C14.7526 19.1101 13.8173 19.1101 13.06 18.6698C12.5783 18.3898 12.2612 17.8215 11.9756 17.15C11.6795 16.4538 11.3585 15.4907 10.9453 14.2511L10.9365 14.2247C10.7917 13.7904 10.7476 13.6726 10.6851 13.5792C10.6151 13.4747 10.5253 13.3849 10.4208 13.3149C10.3274 13.2524 10.2096 13.2083 9.77535 13.0635L9.7489 13.0547C8.50933 12.6415 7.54616 12.3205 6.85003 12.0244C6.17855 11.7388 5.61022 11.4217 5.3302 10.94C4.88993 10.1827 4.88993 9.24739 5.3302 8.49008C5.61022 8.0084 6.17855 7.69129 6.85003 7.40569C7.54617 7.10961 8.50935 6.78855 9.74894 6.37536L13.4024 5.15755C14.9256 4.64979 16.1288 4.24873 17.0533 4.08426ZM16.9148 7.08951C17.1279 7.30501 17.126 7.65248 16.9105 7.86561L13.9836 10.7602C13.7681 10.9734 13.4206 10.9714 13.2075 10.7559C12.9944 10.5404 12.9963 10.193 13.2118 9.97983L16.1387 7.08521C16.3542 6.87209 16.7017 6.87401 16.9148 7.08951Z" fill="#5C5C7B"/>
</svg>

<?xml version="1.0" encoding="utf-8"?>
<!-- Generator: Adobe Illustrator 28.0.0, SVG Export Plug-In . SVG Version: 6.00 Build 0)  -->
<svg version="1.1" id="Layer_1" xmlns="http://www.w3.org/2000/svg" xmlns:xlink="http://www.w3.org/1999/xlink" x="0px" y="0px"
	 viewBox="0 0 24 24" style="enable-background:new 0 0 24 24;" xml:space="preserve">
<style type="text/css">
	.st0{fill-rule:evenodd;clip-rule:evenodd;fill:#1D9BF0;}
</style>
<path class="st0" d="M17.2,5.2c-0.8,0.1-2,0.5-3.5,1l-3.6,1.2c-1.3,0.4-2.2,0.7-2.8,1C6.6,8.7,6.4,8.9,6.3,9C6,9.5,6,10,6.3,10.4
	c0.1,0.1,0.3,0.3,1,0.6c0.7,0.3,1.6,0.6,2.8,1c0,0,0,0,0.1,0c0.3,0.1,0.6,0.2,0.8,0.4c0.2,0.1,0.4,0.3,0.6,0.6
	c0.2,0.2,0.2,0.5,0.4,0.8c0,0,0,0,0,0.1c0.4,1.3,0.7,2.2,1,2.8c0.3,0.7,0.5,0.9,0.6,1c0.4,0.2,0.9,0.2,1.3,0c0.1-0.1,0.3-0.3,0.6-1
	c0.3-0.7,0.6-1.6,1-2.8l1.2-3.6c0.5-1.6,0.9-2.7,1-3.5c0.1-0.8,0-1.2-0.2-1.4C18.4,5.1,18.1,5,17.2,5.2z M17.1,4.1
	C18,3.9,18.8,4,19.4,4.6C20,5.2,20.1,6,19.9,6.9c-0.2,0.9-0.6,2.1-1.1,3.7l-1.2,3.7c-0.4,1.2-0.7,2.2-1,2.9
	c-0.3,0.7-0.6,1.2-1.1,1.5c-0.8,0.4-1.7,0.4-2.4,0c-0.5-0.3-0.8-0.8-1.1-1.5c-0.3-0.7-0.6-1.7-1-2.9l0,0c-0.1-0.4-0.2-0.6-0.3-0.6
	c-0.1-0.1-0.2-0.2-0.3-0.3c-0.1-0.1-0.2-0.1-0.6-0.3l0,0c-1.2-0.4-2.2-0.7-2.9-1c-0.7-0.3-1.2-0.6-1.5-1.1c-0.4-0.8-0.4-1.7,0-2.4
	C5.6,8,6.2,7.7,6.9,7.4c0.7-0.3,1.7-0.6,2.9-1l3.7-1.2C14.9,4.6,16.1,4.2,17.1,4.1z M16.9,7.1c0.2,0.2,0.2,0.6,0,0.8L14,10.8
	c-0.2,0.2-0.6,0.2-0.8,0c-0.2-0.2-0.2-0.6,0-0.8l2.9-2.9C16.4,6.9,16.7,6.9,16.9,7.1z"/>
</svg>
